src/public/img/landing/new/built-for-prod/5.svg

<svg width="64" height="64" viewBox="0 0 64 64" fill="none" xmlns="http://www.w3.org/2000/svg">
<rect width="64" height="64" rx="16" fill="#FCF0ED"/>
<path fill-rule="evenodd" clip-rule="evenodd" d="M38.667 20.0001C38.667 19.5719 38.3944 19.1912 37.989 19.0533C37.5836 18.9154 37.1354 19.051 36.8744 19.3904L26.8744 32.3904C26.6421 32.6923 26.6016 33.1 26.7699 33.4418C26.9381 33.7836 27.286 34.0001 27.667 34.0001H32.667V44.0001C32.667 44.4282 32.9396 44.8089 33.345 44.9468C33.7504 45.0847 34.1985 44.9492 34.4596 44.6098L44.4596 31.6098C44.6919 31.3078 44.7324 30.9001 44.5641 30.5583C44.3958 30.2165 44.048 30.0001 43.667 30.0001H38.667V20.0001ZM33.667 32.0001H29.6979L36.667 22.9402V31.0001C36.667 31.5523 37.1147 32.0001 37.667 32.0001H41.6361L34.667 41.0599V33.0001C34.667 32.4478 34.2193 32.0001 33.667 32.0001ZM22.667 27C22.1147 27 21.667 27.4477 21.667 28C21.667 28.5523 22.1147 29 22.667 29H26.667C27.2193 29 27.667 28.5523 27.667 28C27.667 27.4477 27.2193 27 26.667 27H22.667ZM21.667 38C21.667 37.4477 22.1147 37 22.667 37H29.667C30.2193 37 30.667 37.4477 30.667 38C30.667 38.5523 30.2193 39 29.667 39H22.667C22.1147 39 21.667 38.5523 21.667 38ZM19.667 32.0001C19.1147 32.0001 18.667 32.4478 18.667 33.0001C18.667 33.5523 19.1147 34.0001 19.667 34.0001H23.667C24.2193 34.0001 24.667 33.5523 24.667 33.0001C24.667 32.4478 24.2193 32.0001 23.667 32.0001H19.667Z" fill="#F65128"/>
</svg>

<svg xmlns="http://www.w3.org/2000/svg" width="64" height="64" fill="none">
  <rect width="64" height="64" fill="#FCF0ED" rx="16"/>
  <path fill="#F65128" fill-rule="evenodd" d="M38.667 20a1 1 0 0 0-1.793-.61l-10 13a1 1 0 0 0 .793 1.61h5v10a1 1 0 0 0 1.793.61l10-13a1 1 0 0 0-.793-1.61h-5V20Zm-5 12h-3.97l6.97-9.06V31a1 1 0 0 0 1 1h3.97l-6.97 9.06V33a1 1 0 0 0-1-1Zm-11-5a1 1 0 1 0 0 2h4a1 1 0 1 0 0-2h-4Zm-1 11a1 1 0 0 1 1-1h7a1 1 0 1 1 0 2h-7a1 1 0 0 1-1-1Zm-2-6a1 1 0 1 0 0 2h4a1 1 0 0 0 0-2h-4Z" clip-rule="evenodd"/>
</svg>
